;FLAVOR:Marlin
;TIME:33761
;Filament used: 23.4085m
;Layer height: 0.2
;MINX:72.904
;MINY:33.905
;MINZ:0.2
;MAXX:227.096
;MAXY:194.595
;MAXZ:20.6
;Generated with Cura_SteamEngine main
M140 S50
M105
M190 S50
M104 S200
M105
M109 S200
M82 ;absolute extrusion mode
M201 X500.00 Y500.00 Z100.00 E5000.00 ;Setup machine max acceleration
M203 X500.00 Y500.00 Z10.00 E50.00 ;Setup machine max feedrate
M204 P500.00 R1000.00 T500.00 ;Setup Print/Retract/Travel acceleration
M205 X8.00 Y8.00 Z0.40 E5.00 ;Setup Jerk
M220 S100 ;Reset Feedrate
M221 S100 ;Reset Flowrate

G28 ;Home
G29 ;Auto bed Level

G1 Z0.1 ;Desactivate Touch Mi
G92
G1 Z5

G92 E0 ;Reset Extruder
G1 Z2.0 F3000 ;Move Z Axis up
G1 X10.1 Y20 Z0.28 F5000.0 ;Move to start position
G1 X10.1 Y200.0 Z0.28 F1500.0 E15 ;Draw the first line
G1 X10.4 Y200.0 Z0.28 F5000.0 ;Move to side a little
G1 X10.4 Y20 Z0.28 F1500.0 E30 ;Draw the second line
G92 E0 ;Reset Extruder
G1 Z2.0 F3000 ;Move Z Axis up
G92 E0
G92 E0
G1 F2700 E-5
;LAYER_COUNT:103
;LAYER:0
M107
G0 F6000 X74.457 Y39.73 Z0.2
G0 X72.906 Y46.01
;TYPE:SKIRT
G1 F2700 E0
G1 F1200 X72.916 Y45.359 E0.02165
G1 X72.971 Y44.423 E0.05284
G1 X73.104 Y43.496 E0.08399
G1 X73.154 Y43.23 E0.09299
G1 X73.367 Y42.316 E0.1242
G1 X73.656 Y41.424 E0.15539
G1 X74.021 Y40.56 E0.18659
G1 X74.457 Y39.73 E0.21777
G1 X74.963 Y38.94 E0.24897
G1 X75.534 Y38.196 E0.28017
G1 X76.014 Y37.66 E0.3041
G1 X76.297 Y37.364 E0.31772
G1 X76.974 Y36.715 E0.34891
G1 X77.703 Y36.125 E0.3801
G1 X78.48 Y35.6 E0.41129
G1 X79.299 Y35.142 E0.4425
G1 X80.153 Y34.756 E0.47367
G1 X81.038 Y34.445 E0.50487
G1 X82.148 Y34.162 E0.54297
G1 X83.198 Y33.993 E0.57835
G1 X84.3 Y33.919 E0.61508
G1 X85.148 Y33.905 E0.64329
G1 X214.957 Y33.906 E4.96075
G1 X215.632 Y33.916 E4.98321
G1 X216.568 Y33.97 E5.01439
G1 X217.479 Y34.1 E5.045
G1 X217.748 Y34.15 E5.0541
G1 X218.662 Y34.361 E5.0853
G1 X219.555 Y34.648 E5.11649
G1 X220.42 Y35.011 E5.14769
G1 X221.251 Y35.446 E5.17889
G1 X222.041 Y35.95 E5.21006
G1 X222.786 Y36.52 E5.24126
G1 X223.326 Y37.001 E5.26531
G1 X223.623 Y37.284 E5.27896
G1 X224.274 Y37.96 E5.31017
G1 X224.865 Y38.688 E5.34136
G1 X225.392 Y39.464 E5.37256
G1 X225.85 Y40.282 E5.40374
G1 X226.238 Y41.136 E5.43494
G1 X226.551 Y42.02 E5.46613
G1 X226.847 Y43.189 E5.50623
G1 X227.012 Y44.242 E5.54169
G1 X227.081 Y45.3 E5.57695
G1 X227.095 Y46.148 E5.60516
G1 X227.094 Y110.949 E7.76045
G1 X227.067 Y112.843 E7.82345
G1 X227.073 Y112.94 E7.82668
G1 X227.066 Y116.018 E7.92906
G1 X227.096 Y117.854 E7.99013
G1 X227.094 Y182.457 E10.13883
G1 X227.084 Y183.133 E10.16132
G1 X227.03 Y184.069 E10.1925
G1 X226.898 Y184.987 E10.22335
G1 X226.848 Y185.255 E10.23242
G1 X226.637 Y186.169 E10.26362
G1 X226.349 Y187.062 E10.29483
G1 X225.986 Y187.926 E10.326
G1 X225.55 Y188.757 E10.35721
G1 X225.046 Y189.547 E10.38838
G1 X224.475 Y190.292 E10.41959
G1 X223.986 Y190.84 E10.44402
G1 X223.703 Y191.136 E10.45764
G1 X223.026 Y191.785 E10.48884
G1 X222.297 Y192.375 E10.52003
G1 X221.52 Y192.9 E10.55122
G1 X220.701 Y193.358 E10.58243
G1 X219.847 Y193.744 E10.6136
G1 X218.962 Y194.055 E10.6448
G1 X217.852 Y194.338 E10.6829
G1 X216.802 Y194.507 E10.71827
G1 X215.7 Y194.581 E10.75501
G1 X214.852 Y194.595 E10.78321
G1 X85.043 Y194.594 E15.10068
G1 X84.368 Y194.584 E15.12313
G1 X83.432 Y194.53 E15.15432
G1 X82.521 Y194.4 E15.18492
G1 X82.252 Y194.35 E15.19402
G1 X81.338 Y194.139 E15.22522
G1 X80.445 Y193.852 E15.25642
G1 X79.58 Y193.489 E15.28762
G1 X78.749 Y193.054 E15.31882
G1 X77.959 Y192.55 E15.34998
G1 X77.214 Y191.98 E15.38118
G1 X76.66 Y191.486 E15.40587
G1 X76.364 Y191.203 E15.41949
G1 X75.715 Y190.526 E15.45069
G1 X75.125 Y189.797 E15.48188
G1 X74.6 Y189.02 E15.51307
G1 X74.142 Y188.201 E15.54428
G1 X73.756 Y187.347 E15.57545
G1 X73.445 Y186.462 E15.60665
G1 X73.17 Y185.388 E15.64352
G1 X72.998 Y184.344 E15.67871
G1 X72.919 Y183.197 E15.71695
G1 X72.905 Y182.318 E15.74619
G1 X72.906 Y117.551 E17.90035
G1 X72.933 Y115.657 E17.96335
G1 X72.927 Y115.56 E17.96658
G1 X72.934 Y112.482 E18.06896
G1 X72.904 Y110.646 E18.13003
G1 X72.906 Y46.01 E20.27984
G0 F6000 X73.306 Y46.016
G1 F1200 X73.316 Y45.365 E20.30149
G1 X73.37 Y44.446 E20.33211
G1 X73.497 Y43.57 E20.36155
G1 X73.547 Y43.304 E20.37055
G1 X73.757 Y42.407 E20.40119
G1 X74.043 Y41.532 E20.43181
G1 X74.404 Y40.685 E20.46243
G1 X74.837 Y39.873 E20.49304
G1 X75.339 Y39.101 E20.52367
G1 X75.906 Y38.376 E20.55428
G1 X76.303 Y37.937 E20.57397
G1 X76.586 Y37.641 E20.58759
G1 X77.251 Y37.004 E20.61822
G1 X77.968 Y36.426 E20.64885
G1 X78.733 Y35.914 E20.67946
G1 X79.539 Y35.469 E20.71009
G1 X80.381 Y35.097 E20.7407
G1 X81.252 Y34.798 E20.77133
G1 X82.237 Y34.552 E20.8051
G1 X83.261 Y34.389 E20.83959
G1 X84.307 Y34.319 E20.87445
G1 X85.155 Y34.305 E20.90266
G1 X214.951 Y34.306 E25.2197
G1 X215.626 Y34.316 E25.24215
G1 X216.545 Y34.37 E25.27277
G1 X217.406 Y34.493 E25.3017
G1 X217.675 Y34.543 E25.3108
G1 X218.572 Y34.751 E25.34142
G1 X219.448 Y35.035 E25.37205
G1 X220.295 Y35.395 E25.40266
G1 X221.109 Y35.826 E25.4333
G1 X221.881 Y36.327 E25.46391
G1 X222.608 Y36.892 E25.49453
G1 X223.05 Y37.291 E25.51433
G1 X223.347 Y37.574 E25.52798
G1 X223.986 Y38.237 E25.5586
G1 X224.564 Y38.954 E25.58924
G1 X225.078 Y39.718 E25.61986
G1 X225.524 Y40.523 E25.65047
G1 X225.898 Y41.364 E25.68108
G1 X226.198 Y42.235 E25.71172
G1 X226.455 Y43.276 E25.74739
G1 X226.616 Y44.304 E25.782
G1 X226.681 Y45.307 E25.81543
G1 X226.695 Y46.155 E25.84363
G1 X226.694 Y110.944 E27.99853
G1 X226.667 Y112.82 E28.06093
G1 X226.673 Y112.939 E28.06489
G1 X226.666 Y116.023 E28.16747
G1 X226.696 Y117.854 E28.22837
G1 X226.694 Y182.451 E30.37688
G1 X226.684 Y183.127 E30.39936
G1 X226.63 Y184.046 E30.42998
G1 X226.505 Y184.914 E30.45915
G1 X226.455 Y185.182 E30.46822
G1 X226.247 Y186.079 E30.49884
G1 X225.962 Y186.954 E30.52945
G1 X225.602 Y187.802 E30.56009
G1 X225.17 Y188.615 E30.59071
G1 X224.669 Y189.387 E30.62132
G1 X224.103 Y190.113 E30.65194
G1 X223.697 Y190.563 E30.6721
G1 X223.414 Y190.859 E30.68572
G1 X222.749 Y191.496 E30.71635
G1 X222.032 Y192.074 E30.74698
G1 X221.267 Y192.586 E30.7776
G1 X220.461 Y193.031 E30.80822
G1 X219.619 Y193.403 E30.83883
G1 X218.748 Y193.702 E30.86946
G1 X217.763 Y193.948 E30.90323
G1 X216.739 Y194.111 E30.93772
G1 X215.693 Y194.181 E30.97259
G1 X214.845 Y194.195 E31.00079
G1 X85.049 Y194.194 E35.31783
G1 X84.374 Y194.184 E35.34028
G1 X83.455 Y194.13 E35.3709
G1 X82.594 Y194.007 E35.39983
G1 X82.325 Y193.957 E35.40893
G1 X81.428 Y193.749 E35.43955
G1 X80.552 Y193.465 E35.47018
G1 X79.705 Y193.105 E35.50079
G1 X78.891 Y192.674 E35.53143
G1 X78.119 Y192.173 E35.56204
G1 X77.392 Y191.608 E35.59266
G1 X76.937 Y191.197 E35.61305
G1 X76.641 Y190.914 E35.62667
G1 X76.004 Y190.249 E35.6573
G1 X75.426 Y189.532 E35.68793
G1 X74.914 Y188.767 E35.71855
G1 X74.469 Y187.961 E35.74917
G1 X74.097 Y187.119 E35.77979
G1 X73.798 Y186.248 E35.81042
G1 X73.56 Y185.299 E35.84296
G1 X73.393 Y184.279 E35.87734
G1 X73.319 Y183.191 E35.91361
G1 X73.305 Y182.312 E35.94285
G1 X73.306 Y117.556 E38.09664
G1 X73.333 Y115.68 E38.15904
G1 X73.327 Y115.561 E38.16301
G1 X73.334 Y112.477 E38.26558
G1 X73.304 Y110.646 E38.32649
G1 X73.306 Y46.016 E40.47609
G0 F6000 X73.706 Y46.022
G1 F1200 X73.716 Y45.371 E40.49774
G1 X73.77 Y44.47 E40.52777
G1 X73.891 Y43.644 E40.55553
G1 X73.941 Y43.378 E40.56453
G1 X74.147 Y42.498 E40.59459
G1 X74.429 Y41.641 E40.6246
G1 X74.787 Y40.812 E40.65464
G1 X75.217 Y40.017 E40.6847
G1 X75.715 Y39.264 E40.71472
G1 X76.278 Y38.558 E40.74476
G1 X76.592 Y38.213 E40.76027
G1 X76.875 Y37.917 E40.77389
G1 X77.528 Y37.293 E40.80394
G1 X78.233 Y36.728 E40.83398
G1 X78.985 Y36.229 E40.864
G1 X79.779 Y35.797 E40.89407
G1 X80.607 Y35.438 E40.92408
G1 X81.464 Y35.153 E40.95412
G1 X82.325 Y34.943 E40.9836
G1 X83.324 Y34.784 E41.01724
G1 X84.314 Y34.719 E41.05024
G1 X85.162 Y34.705 E41.07845
G1 X214.945 Y34.706 E45.39505
G1 X215.62 Y34.716 E45.4175
G1 X216.522 Y34.769 E45.44756
G1 X217.333 Y34.887 E45.47481
G1 X217.602 Y34.937 E45.48391
G1 X218.482 Y35.141 E45.51396
G1 X219.34 Y35.422 E45.54399
G1 X220.17 Y35.778 E45.57403
G1 X220.965 Y36.206 E45.60406
G1 X221.719 Y36.703 E45.63409
G1 X222.427 Y37.264 E45.66414
G1 X223.071 Y37.864 E45.69341
G1 X223.697 Y38.515 E45.72345
G1 X224.262 Y39.219 E45.75347
G1 X224.764 Y39.97 E45.78352
G1 X225.196 Y40.763 E45.81355
G1 X225.557 Y41.591 E45.8436
G1 X225.843 Y42.448 E45.87365
G1 X226.064 Y43.36 E45.90486
G1 X226.221 Y44.366 E45.93872
G1 X226.281 Y45.314 E45.97032
G1 X226.295 Y46.162 E45.99852
G1 X226.294 Y110.938 E48.15298
G1 X226.268 Y112.781 E48.21429
G1 X226.273 Y112.939 E48.21954
G1 X226.266 Y115.977 E48.32059
G1 X226.295 Y117.682 E48.37731
G1 X226.294 Y182.445 E50.53133
G1 X226.284 Y183.121 E50.55382
G1 X226.231 Y184.022 E50.58384
G1 X226.112 Y184.841 E50.61136
G1 X226.062 Y185.109 E50.62043
G1 X225.857 Y185.988 E50.65045
G1 X225.575 Y186.846 E50.68049
G1 X225.219 Y187.676 E50.71053
G1 X224.79 Y188.471 E50.74057
G1 X224.293 Y189.225 E50.77061
G1 X223.731 Y189.932 E50.80065
G1 X223.408 Y190.287 E50.81661
G1 X223.125 Y190.583 E50.83023
G1 X222.472 Y191.207 E50.86027
G1 X221.767 Y191.772 E50.89032
G1 X221.015 Y192.271 E50.92034
G1 X220.221 Y192.703 E50.95041
G1 X219.393 Y193.062 E50.98042
G1 X218.536 Y193.347 E51.01046
G1 X217.675 Y193.557 E51.03994
G1 X216.676 Y193.716 E51.07358
G1 X215.686 Y193.781 E51.10658
G1 X214.838 Y193.795 E51.13479
G1 X85.055 Y193.794 E55.45139
G1 X84.38 Y193.784 E55.47384
G1 X83.478 Y193.731 E55.50389
G1 X82.667 Y193.613 E55.53115
G1 X82.398 Y193.563 E55.54025
G1 X81.518 Y193.359 E55.5703
G1 X80.66 Y193.078 E55.60033
G1 X79.83 Y192.722 E55.63036
G1 X79.035 Y192.294 E55.66039
G1 X78.281 Y191.797 E55.69043
G1 X77.573 Y191.236 E55.72048
G1 X77.213 Y190.908 E55.73667
G1 X76.917 Y190.625 E55.75029
G1 X76.293 Y189.972 E55.78034
G1 X75.728 Y189.267 E55.81038
G1 X75.229 Y188.515 E55.8404
G1 X74.797 Y187.721 E55.87047
G1 X74.438 Y186.893 E55.90048
G1 X74.153 Y186.036 E55.93052
G1 X73.95 Y185.208 E55.95888
G1 X73.788 Y184.214 E55.99237
G1 X73.719 Y183.184 E56.02671
G1 X73.704 Y182.143 E56.06134
G1 X73.706 Y117.562 E58.20931
G1 X73.732 Y115.719 E58.27061
G1 X73.727 Y115.561 E58.27587
G1 X73.734 Y112.523 E58.37691
G1 X73.705 Y110.818 E58.43363
G1 X73.706 Y46.022 E60.58876
G1 F2700 E55.58876
;MESH:Centipede_verso.stl
G0 F6000 X83.239 Y46.024
G0 X84.324 Y46.024
G0 X84.703 Y101.387
G0 X84.732 Y111.267
G1 F2700 E60.58876
G0 F6000 X84.509 Y111.461
;TYPE:WALL-INNER
G1 F1200 X84.537 Y111.488 E60.59005
G1 X215.488 Y111.489 E64.9455
G1 X215.495 Y45.566 E67.1381
G1 X215.456 Y45.506 E67.14048
G1 X84.539 Y45.511 E71.4948
G1 X84.506 Y45.544 E71.49635
G1 X84.509 Y111.461 E73.68876
G0 F6000 X84.142 Y111.661
;TYPE:WALL-OUTER
G1 F1200 X84.339 Y111.856 E73.69798
G1 X84.522 Y111.894 E73.7042
G1 X215.478 Y111.895 E78.05981
G1 X215.661 Y111.857 E78.06603
G1 X215.856 Y111.661 E78.07522
G1 X215.894 Y111.478 E78.08144
G1 X215.895 Y45.566 E80.27368
G1 X215.858 Y45.339 E80.28133
G1 X215.66 Y45.144 E80.29058
G1 X215.477 Y45.106 E80.29679
G1 X84.523 Y45.105 E84.65234
G1 X84.339 Y45.143 E84.65859
G1 X84.144 Y45.34 E84.66781
G1 X84.106 Y45.523 E84.67403
G1 X84.104 Y111.481 E86.8678
G1 X84.142 Y111.661 E86.87392
G0 F6000 X84.866 Y111.132
;TYPE:SKIN
G1 F1200 X215.133 Y111.133 E91.20661
G1 X215.134 Y45.867 E93.37737
G1 X84.867 Y45.866 E97.71007
G1 X84.867 Y78.499 E98.79545
G1 X84.866 Y111.132 E99.88082
G0 F6000 X85.475 Y110.931
G1 F1200 X85.065 Y110.521 E99.90011
G0 F6000 X85.065 Y109.955
G1 F1200 X86.041 Y110.931 E99.94602
G0 F6000 X86.607 Y110.931
G1 F1200 X85.065 Y109.39 E100.01852
G0 F6000 X85.065 Y108.824
G1 F1200 X87.172 Y110.931 E100.11763
G0 F6000 X87.738 Y110.931
G1 F1200 X85.065 Y108.258 E100.24336
G0 F6000 X85.065 Y107.693
G1 F1200 X88.304 Y110.931 E100.39569
G0 F6000 X88.869 Y110.931
G1 F1200 X85.065 Y107.127 E100.57462
G0 F6000 X85.065 Y106.561
G1 F1200 X89.435 Y110.931 E100.78017
G0 F6000 X90.001 Y110.931
G1 F1200 X85.065 Y105.996 E101.01232
G0 F6000 X85.065 Y105.43
G1 F1200 X90.566 Y110.931 E101.27107
G0 F6000 X91.132 Y110.931
G1 F1200 X85.065 Y104.864 E101.55644
G0 F6000 X85.065 Y104.298
G1 F1200 X91.698 Y110.931 E101.86844
G0 F6000 X92.263 Y110.931
G1 F1200 X85.065 Y103.733 E102.20701
G0 F6000 X85.065 Y103.167
G1 F1200 X92.829 Y110.931 E102.57221
G0 F6000 X93.395 Y110.931
G1 F1200 X85.065 Y102.601 E102.96402
G0 F6000 X85.065 Y102.036
G1 F1200 X93.961 Y110.931 E103.38244
G0 F6000 X94.526 Y110.931
G1 F1200 X85.065 Y101.47 E103.82746
G0 F6000 X85.065 Y100.904
G1 F1200 X95.092 Y110.931 E104.2991
G0 F6000 X95.658 Y110.931
G1 F1200 X85.065 Y100.339 E104.79734
G0 F6000 X85.065 Y99.773
G1 F1200 X96.223 Y110.931 E105.32217
G0 F6000 X96.789 Y110.931
G1 F1200 X85.065 Y99.207 E105.87363
G0 F6000 X85.065 Y98.642
G1 F1200 X97.355 Y110.931 E106.4517
G0 F6000 X97.92 Y110.931
G1 F1200 X85.065 Y98.076 E107.05636
G0 F6000 X85.065 Y97.51
G1 F1200 X98.486 Y110.931 E107.68764
G0 F6000 X99.052 Y110.931
G1 F1200 X85.065 Y96.945 E108.34552
G0 F6000 X85.065 Y96.379
G1 F1200 X99.617 Y110.931 E109.03
G0 F6000 X100.183 Y110.931
G1 F1200 X85.065 Y95.813 E109.74111
G0 F6000 X85.065 Y95.247
G1 F1200 X100.749 Y110.931 E110.47883
G0 F6000 X101.314 Y110.931
G1 F1200 X85.065 Y94.682 E111.24314
G0 F6000 X85.065 Y94.116
G1 F1200 X101.88 Y110.931 E112.03406
G0 F6000 X102.446 Y110.931
G1 F1200 X85.065 Y93.55 E112.85161
G0 F6000 X85.065 Y92.985
G1 F1200 X103.012 Y110.931 E113.69576
G0 F6000 X103.577 Y110.931
G1 F1200 X85.065 Y92.419 E114.56651
G0 F6000 X85.065 Y91.853
G1 F1200 X104.143 Y110.931 E115.46388
G0 F6000 X104.709 Y110.931
G1 F1200 X85.065 Y91.288 E116.38785
G0 F6000 X85.065 Y90.722
G1 F1200 X105.274 Y110.931 E117.33842
G0 F6000 X105.84 Y110.931
G1 F1200 X85.065 Y90.156 E118.31561
G0 F6000 X85.065 Y89.591
G1 F1200 X106.406 Y110.931 E119.3194
G0 F6000 X106.971 Y110.931
G1 F1200 X85.065 Y89.025 E120.34979
G0 F6000 X85.065 Y88.459
G1 F1200 X107.537 Y110.931 E121.40681
G0 F6000 X108.103 Y110.931
G1 F1200 X85.065 Y87.894 E122.49042
G0 F6000 X85.065 Y87.328
G1 F1200 X108.668 Y110.931 E123.60063
G0 F6000 X109.234 Y110.931
G1 F1200 X85.065 Y86.762 E124.73747
G0 F6000 X85.065 Y86.197
G1 F1200 X109.8 Y110.931 E125.9009
G0 F6000 X110.365 Y110.931
G1 F1200 X85.065 Y85.631 E127.09094
G0 F6000 X85.065 Y85.065
G1 F1200 X110.931 Y110.931 E128.30759
G0 F6000 X111.497 Y110.931
G1 F1200 X85.065 Y84.499 E129.55088
G0 F6000 X85.065 Y83.934
G1 F1200 X112.062 Y110.931 E130.82073
G0 F6000 X112.628 Y110.931
G1 F1200 X85.065 Y83.368 E132.11721
G0 F6000 X85.065 Y82.802
G1 F1200 X113.194 Y110.931 E133.44031
G0 F6000 X113.76 Y110.931
G1 F1200 X85.065 Y82.237 E134.79001
G0 F6000 X85.065 Y81.671
G1 F1200 X114.325 Y110.931 E136.16631
G0 F6000 X114.891 Y110.931
G1 F1200 X85.065 Y81.105 E137.56924
G0 F6000 X85.065 Y80.54
G1 F1200 X115.457 Y110.931 E138.99876
G0 F6000 X116.022 Y110.931
G1 F1200 X85.065 Y79.974 E140.45488
G0 F6000 X85.065 Y79.408
G1 F1200 X116.588 Y110.931 E141.93763
G0 F6000 X117.154 Y110.931
G1 F1200 X85.065 Y78.843 E143.44697
G0 F6000 X85.065 Y78.277
G1 F1200 X117.719 Y110.931 E144.98292
G0 F6000 X118.285 Y110.931
G1 F1200 X85.065 Y77.711 E146.54548
G0 F6000 X85.065 Y77.146
G1 F1200 X118.851 Y110.931 E148.13465
G0 F6000 X119.416 Y110.931
G1 F1200 X85.065 Y76.58 E149.75042
G0 F6000 X85.065 Y76.014
G1 F1200 X119.982 Y110.931 E151.3928
G0 F6000 X120.548 Y110.931
G1 F1200 X85.065 Y75.449 E153.06179
G0 F6000 X85.065 Y74.883
G1 F1200 X121.113 Y110.931 E154.75738
G0 F6000 X121.679 Y110.931
G1 F1200 X85.065 Y74.317 E156.47959
G0 F6000 X85.065 Y73.751
G1 F1200 X122.245 Y110.931 E158.22842
G0 F6000 X122.811 Y110.931
